X: 90
T: No_50_Song_Concerning_the_Kinewuk.krn
N: Derived from No_50_Song_Concerning_the_Kinewuk.krn
%%abc-version 2.0
%%abcx-abcm2ps-target-version 5.9.1 (29 Sep 2008)
%%abc-creator hum2abc beta
%%abcx-conversion-date 2019/03/15 08:35:45
%%humdrum-veritas 930202843
%%humdrum-veritas-data 1946538508
%%linebreak <none>
%%barnumbers 0
L: 1/8
M: 2/4
K: Bb clef=bass
[K:clef=bass][M:2/4]C2C2- | 
C z C/C/C ||  
[M:3/4]C2C2z2 | 
C2B,2G,/G,/B, | 
B,2B,2z2 | 
B,2G,2F,/F,/G, | 
F,2F,2z2 | 
B,/B,B,/ B,G,-G,2 ||  
[M:2/4]G,2G,/F,/G, ||  
[M:3/4]F,2F,2z2 | 
E,D,C,2B,,/B,,/C, ||  
[M:2/4]C,2C, z ||  
[M:3/4]C,2B,,2G,,/G,,/B,, ||  
[M:2/4]B,,2G,, z ||  
[M:3/4]B,,2G,,2F,,/F,,/G,, | 
F,,2F,,4 |]  



